priv/static/svgs/icons_new/sport-e-soccer.svg

<svg width="32" height="32" viewBox="0 0 32 32" fill="none" xmlns="http://www.w3.org/2000/svg">
<path d="M13.4786 11.7319C13.4786 11.7319 12.4589 14.0378 12.3035 15.5013C12.3035 15.5013 13.7227 17.4078 15.0308 18.5386L18.9979 17.6739C18.9979 17.6739 19.7175 16.4144 20.0206 14.7306M13.4786 11.7319C12.3112 10.5422 10.8034 10.0544 10.8034 10.0544M13.4786 11.7319C14.7337 11.2663 15.8901 11.0421 16.6356 10.9362M12.4795 6.8318C12.4795 6.8318 11.1731 8.36928 10.8034 10.0544M10.8034 10.0544C10.8034 10.0544 8.6325 11.1966 7.98211 12.688C7.98211 12.688 7.87677 14.2702 8.79319 16.071L12.3035 15.4996M8.79318 16.0727C8.79318 16.0727 7.80275 17.8292 8.08378 19.4107C8.08378 19.4107 8.94086 21.6723 10.684 22.5147C10.684 22.5147 12.3395 22.6183 14.143 21.9383C14.143 21.9383 14.6604 19.322 15.0298 18.5379M6.33194 12.4277C6.33194 12.4277 6.92733 12.375 7.97843 12.508M6.21693 19.4217L8.03378 19.2967M10.685 22.5147C10.685 22.5147 10.4183 23.3621 10.59 24.5149M14.144 21.9383C14.144 21.9383 16.1836 23.2834 17.3664 23.3718M17.3664 23.3718C17.3664 23.3718 19.6869 22.3667 20.3667 20.8145M17.3664 23.3718C17.3664 23.3718 17.4107 24.8582 17.2553 25.5193M20.3667 20.8145C20.3667 20.8145 19.6129 18.5236 18.9999 17.6735M20.3667 20.8145C23.7663 20.3125 24.3134 16.3807 24.3134 16.3807C24.2245 15.7305 23.9474 15.3641 23.7484 14.9138M22.6709 19.6821C22.6709 19.6821 23.1709 20.5285 22.8916 21.9946M16.6356 6.51751C16.1898 6.4544 15.7341 6.42175 15.2708 6.42175C9.94075 6.42175 5.61987 10.7426 5.61987 16.0727C5.61987 21.4028 9.94075 25.7237 15.2708 25.7237C20.6009 25.7237 24.9218 21.4028 24.9218 16.0727C24.9218 15.6173 24.8902 15.1692 24.8292 14.7306M20.4157 7.93488C20.4157 9.82808 21.5448 11.1474 23.3789 11.1474C24.355 11.1474 25.3406 10.96 26.2385 9.83757M20.4157 7.93488C20.4157 6.04168 21.5448 4.74365 23.3789 4.74365C25.213 4.74365 26.3802 6.04168 26.3802 7.93488H20.4157Z" stroke="black" stroke-miterlimit="10" stroke-linecap="round" stroke-linejoin="round"/>
</svg>

<svg width="32" height="32" viewBox="0 0 32 32" fill="none" xmlns="http://www.w3.org/2000/svg">
  <symbol id="item" viewBox="0 0 32 32" stroke-width="1" fill="none">
    <path d="M13.479 11.732s-1.02 2.306-1.175 3.77c0 0 1.419 1.906 2.727 3.037l3.967-.865s.72-1.26 1.023-2.943m-6.542-3c-1.168-1.189-2.676-1.677-2.676-1.677m2.676 1.678a15.517 15.517 0 0 1 3.157-.796M12.48 6.832s-1.307 1.537-1.677 3.222m0 0s-2.17 1.143-2.82 2.634c0 0-.106 1.582.81 3.383l3.51-.571m-3.51.573s-.99 1.756-.71 3.338c0 0 .858 2.261 2.601 3.104 0 0 1.655.103 3.459-.577 0 0 .517-2.616.887-3.4m-8.698-6.11s.595-.053 1.646.08m-1.761 6.914 1.817-.125m2.651 3.218s-.267.847-.095 2m3.554-2.577s2.04 1.345 3.222 1.434m0 0s2.32-1.005 3-2.558m-3 2.558s.045 1.486-.11 2.147m3.11-4.704s-.753-2.291-1.366-3.142m1.367 3.142c3.4-.503 3.946-4.434 3.946-4.434-.088-.65-.366-1.017-.565-1.467m-1.077 4.768s.5.847.22 2.313M16.637 6.518A9.65 9.65 0 0 0 5.62 16.073c0 5.33 4.32 9.65 9.65 9.65a9.651 9.651 0 0 0 9.56-10.992m-4.414-6.796c0 1.893 1.129 3.212 2.963 3.212.976 0 1.962-.187 2.86-1.31m-5.823-1.902c0-1.893 1.129-3.191 2.963-3.191s3.001 1.298 3.001 3.19h-5.964Z" stroke="currentColor" stroke-miterlimit="10" stroke-linecap="round" stroke-linejoin="round"/>
  </symbol>
</svg>
